!!!OTL: DES LEBENS TAG IST SCHWER UND SCHWUEL
!!!ARE: Europa, Mitteleuropa, Deutschland
!!!SCT: F1048
!!!YEM: Copyright 1995, estate of Helmut Schaffrath.
**kern
*ICvox
*Ivox
*M4/4
*k[f#c#g#d#]
*E:
{4e
=1
4b
4g#
4e
4g#
=2
4b
4g#
4e}
{4b
=3
4ee
4ee
4dd#
4g#
=4
8.a
16b
8cc#
8cc#
4b}
{4b
=5
4.b
8a
8g#
8ee
8dd#
8cc#
=6
4.b
8a
4g#}
{4g#
=7
4f#
4g#
4a
4g#
=8
[2f#
8f#]
8a
8g#
8f#
=9
4e
2r}
==
!!!AGN: Trost - Lied, Tod
!!!ONB: ESAC (Essen Associative Code) Database: FINK
!!!AMT: simple quadruple
!!!AIN: vox
!!!EED: Helmut Schaffrath
!!!EEV: 1.0
*-
